X:3463
T:Lads of Dunse, The
O:england
M:6/8
L:1/8
S:Kershaw, Vickers, etc. - VMP
R:Jig
K:D
B|AFD DED|DFA B2A|Bcd AGF|GEE E2B|AFD DED|
DFA B2A|Bcd edc|d3d2::e|faf d2g|fafd2A|Bcd AGF|
GEE E2g|faf d2g|fafd2A|Bcd edc|d3d2:|


